!!!COM: Bach, Johann Sebastian
!!!CDT: 1685/3//-1750/7/28/
!!!OTL@@DE: O Mensch, bewein' dein' Suende gross
!!!AGN: 4-Part Chorale
!!!SCT: BH 306
!!!SCT: BWV 402
**harm	**root	**kern	**kern	**kern	**kern
!	!	!bass	!tenor	!alto	!soprno
*	*Iorgan	*Iorgan	*Iorgan	*Iorgan	*Iorgan
*M4/4	*M4/4	*M4/4	*M4/4	*M4/4	*M4/4
*met(c)	*met(c)	*met(c)	*met(c)	*met(c)	*met(c)
*MM60	*MM60	*MM60	*MM60	*MM60	*MM60
*k[b-]	*k[b-]	*k[b-]	*k[b-]	*k[b-]	*k[b-]
*F:	*F:	*F:	*F:	*F:	*F:
*>[A,A,B]	*>[A,A,B]	*>[A,A,B]	*>[A,A,B]	*>[A,A,B]	*>[A,A,B]
*>A	*>A	*>A	*>A	*>A	*>A
I	4EE-	4F	4A	4c	4f
=1	=1	=1	=1	=1	=1
IV	4AA-	8B-	4B-	4.d	4f
.	.	8A	.	.	.
ii	4FF	4G	4B-	.	4g
.	.	.	.	16c#	.
.	.	.	.	16d	.
Vb/vi	4GG	4C#	4A	4.e	8a
.	.	.	.	.	8g
vi	4CC	[4D	4A	.	4f
.	.	.	.	16d	.
.	.	.	.	16e	.
=2	=2	=2	=2	=2	=2
vi	4CC	4D]	8d	4.f	4a
.	.	.	8c	.	.
viioD7/iii	4FF#	4GG#	4B	.	4b
.	.	.	.	8e	.
iii;	4GG;	4AA;	4A;	4e;	4cc;
iii	4GG	4A	4e	[4a	4cc
=3	=3	=3	=3	=3	=3
IVb	8AA-	8D	8f	8a]	4b-y
V7b	8BB-	8E	8c	4g	.
I	4EE-	4F	4c	.	4a
.	.	.	.	4f	.
V7b/V	8FF	8BB	8d	.	4g
V7b/vi	8GG	8C#	8A	8e	.
vi	4CC	[4D	4A	8d	8f
.	.	.	.	8e	8g
=4	=4	=4	=4	=4	=4
vi	4CC	4D]	8d	4f	4a
.	.	.	8c	.	.
V7/V	4FF	4GG	4d	4f	4b
V;	4BB-;	4C;	4c;	4e;	4cc;
ii	4FF	8G	[4B-y	[4g	4dd
.	.	8F	.	.	.
=5	=5	=5	=5	=5	=5
V7b	8BB-	8E	8B-]	8g]	4cc
Ic	8EE-	8C	4A	16f	.
.	.	.	.	16e	.
IVb	8AA-	8D	.	8f	4b-
V7b	8BB-	8E	8G	8c	.
I	4EE-	8F	4.F	8c	4a
.	.	8E	.	16f	.
.	.	.	.	16e	.
IVb	4AA-	8D	.	[4f	4b-
.	.	8C	8c	.	.
!!linebreak: 3
=6	=6	=6	=6	=6	=6
ii7b	8FF	8BB-	8d	8f]	2g
viib	8DD	8GG	8B-	16e	.
.	.	.	.	16d	.
V	4BB-	4C	8G	4e	.
.	.	.	8c	.	.
I;	4EE-;	4FF;	4A;	4c;	4f;
=:|!	=:|!	=:|!	=:|!	=:|!	=:|!
*>B	*>B	*>B	*>B	*>B	*>B
I	8EE-	8FF	8A	8cc	4ff
ii7	8FF	8GG	8B-	8b-	.
=7	=7	=7	=7	=7	=7
Ib	4EE-	4AA	4c	4a	4ff
V7b/V	4FF	4BB	[4d	4g	4ff
V	4BB-	8C	8d]	4g	4ee
.	.	8D	16c	.	.
.	.	.	16B-y	.	.
V7d/IV	4EE-	4E-	4A	4f	4cc
=8	=8	=8	=8	=8	=8
IVb	4AA-	8D	4B-	8f	4dd
.	.	8C	.	8e-	.
IV	4AA-	4BB-	4B-	4f	4dd
I;	4EE-;	4F;	4c;	4f;	4a;
vi	4CC	8D	4d	4a	4ff
.	.	8C	.	.	.
=9	=9	=9	=9	=9	=9
V7b/V	4FF	8BB	8d	4g	4ff
.	.	8AA	8c	.	.
V7/V	4FF	4GG	4B	4g	4ff
V	4BB-	8C	8c	4g	4ee
.	.	8D	8B	.	.
Vb	4BB-	4E	[4c	4g	4cc
=10	=10	=10	=10	=10	=10
V7/II	4CC	4D	8c]	4a	4dd
.	.	.	16B	.	.
.	.	.	16A	.	.
II	4FF	4G	4B	8g	4dd
.	.	.	.	8f	.
V;	4BB-;	4C;	4c;	4e;	4cc;
I	4EE-	[4F	4c	8f	8a
.	.	.	.	8g	8b-
=11	=11	=11	=11	=11	=11
I	4EE-	8F]	4f	4a	4cc
.	.	8E-	.	.	.
IVb	4AA-	8D	4f	4b-	4dd
.	.	8E	.	.	.
V/IV	4EE-	4F	8f	4a	4cc
.	.	.	4e-	.	.
Vb/ii	4CC	4F#	.	[4a	4a
.	.	.	8d	.	.
!!linebreak: 3
=12	=12	=12	=12	=12	=12
ii	4FF	4G	4d	8a]	2b-
.	.	.	.	16g	.
.	.	.	.	16f	.
viiD7/vi	4BB	4C#	8e	8g	.
.	.	.	8g	8e	.
vi;	4CC;	4D;	4d;	4f;	4a;
IV/IV	4DD-	[4E-	4B-	4g	4g
=13	=13	=13	=13	=13	=13
V7d/IV	4EE-	4E-]	4c	4f	4a
IV	4AA-	4D	4d	4f	4b-
V	4BB-	8C	4e	4g	4cc
.	.	8BB-	.	.	.
iii	4GG	4AA	8E	4a	4cc
.	.	.	8F#	.	.
=14	=14	=14	=14	=14	=14
ii	4FF	4GG	4G	8d	4b-
.	.	.	.	8e	.
Ib	4EE-	8AA	4c	[4f	4a
.	.	8BB-	.	.	.
V;	4BB-;	4C;	4c;	8f]	4g;
.	.	.	.	8e;	.
V	4BB-	4c	4e	4g	4cc
=15	=15	=15	=15	=15	=15
Vb/V	4FF	4B	4d	4g	4dd
V7c	4BB-	4B-	[4c	4g	4ee
Ib	4EE-	4.A	8c]	8a	4ff
.	.	.	8d	8b	.
iii	4GG	.	4e	[4cc	4ee
.	.	8G	.	.	.
=16	=16	=16	=16	=16	=16
V7b/ii	4CC	4F#	4A	4cc]	4dd
V7b/iii	4DD	4G#	4e	4b	4dd
iii;	4GG;	4A;	4e;	4a;	4cc;
IV	4AA-	[4B-y	4d	4f	4f
=17	=17	=17	=17	=17	=17
V7d	4BB-	8B-]	4c	4e	4g
.	.	8A	.	.	.
I	4EE-	8G	4.c	4f	4a
.	.	8F	.	.	.
V7b	8BB-	8E	.	8g	4b-
V7	8BB-	8C	8G	8e	.
I	8EE-	8F	8A	8c	4a
Ib	8EE-	8AA	8c	[8f	.
=18	=18	=18	=18	=18	=18
ii7b	8FF	4BB-	8d	8f]	2g
viib	8DD	.	8B-	16e	.
.	.	.	.	16d	.
V	4BB-	4C	8G	4e	.
.	.	.	16c	.	.
.	.	.	16B-	.	.
I;	4EE-;	4FF;	4A;	4c;	4f;
==	==	==	==	==	==
*-	*-	*-	*-	*-	*-
!!chor2scor: -l 3 -s 0.6 -o %b.pmx
!!!YEC: Copyright 1994, David Huron
!!!YEC: Changes/Additions 2001 by Craig Stuart Sapp
!!!YEN: United States of America
!!!SMA: 371 Bach Chorales, edited by Ludwig Erk, C.F. Peters
!!!PDT: 1850, 1865
!!!ONB: Harmony and Root analysis done manually
